src/assets/filled/CalendarAdd.svg

<svg width="24" height="24" viewBox="0 0 24 24"  xmlns="http://www.w3.org/2000/svg">
<path d="M16.75 3.56V2C16.75 1.59 16.41 1.25 16 1.25C15.59 1.25 15.25 1.59 15.25 2V3.5H8.74999V2C8.74999 1.59 8.40999 1.25 7.99999 1.25C7.58999 1.25 7.24999 1.59 7.24999 2V3.56C4.54999 3.81 3.23999 5.42 3.03999 7.81C3.01999 8.1 3.25999 8.34 3.53999 8.34H20.46C20.75 8.34 20.99 8.09 20.96 7.81C20.76 5.42 19.45 3.81 16.75 3.56Z" />
<path d="M20 9.83984H4C3.45 9.83984 3 10.2898 3 10.8398V16.9998C3 19.9998 4.5 21.9998 8 21.9998H12.93C13.62 21.9998 14.1 21.3298 13.88 20.6798C13.68 20.0998 13.51 19.4598 13.51 18.9998C13.51 15.9698 15.98 13.4998 19.01 13.4998C19.3 13.4998 19.59 13.5198 19.87 13.5698C20.47 13.6598 21.01 13.1898 21.01 12.5898V10.8498C21 10.2898 20.55 9.83984 20 9.83984ZM9.21 17.7098C9.11 17.7998 9 17.8698 8.88 17.9198C8.76 17.9698 8.63 17.9998 8.5 17.9998C8.37 17.9998 8.24 17.9698 8.12 17.9198C8 17.8698 7.89 17.7998 7.79 17.7098C7.61 17.5198 7.5 17.2598 7.5 16.9998C7.5 16.9398 7.51 16.8698 7.52 16.8098C7.53 16.7398 7.55 16.6798 7.58 16.6198C7.6 16.5598 7.63 16.4998 7.67 16.4398C7.7 16.3898 7.75 16.3398 7.79 16.2898C7.89 16.1998 8 16.1298 8.12 16.0798C8.36 15.9798 8.64 15.9798 8.88 16.0798C9 16.1298 9.11 16.1998 9.21 16.2898C9.25 16.3398 9.3 16.3898 9.33 16.4398C9.37 16.4998 9.4 16.5598 9.42 16.6198C9.45 16.6798 9.47 16.7398 9.48 16.8098C9.49 16.8698 9.5 16.9398 9.5 16.9998C9.5 17.2598 9.39 17.5198 9.21 17.7098ZM9.21 14.2098C9.11 14.2998 9 14.3698 8.88 14.4198C8.76 14.4698 8.63 14.4998 8.5 14.4998C8.37 14.4998 8.24 14.4698 8.12 14.4198C7.99 14.3698 7.89 14.2998 7.79 14.2098C7.61 14.0198 7.5 13.7598 7.5 13.4998C7.5 13.2398 7.61 12.9798 7.79 12.7898C7.89 12.6998 8 12.6298 8.12 12.5798C8.36 12.4798 8.64 12.4798 8.88 12.5798C9 12.6298 9.11 12.6998 9.21 12.7898C9.25 12.8398 9.3 12.8898 9.33 12.9398C9.37 12.9998 9.4 13.0598 9.42 13.1198C9.45 13.1798 9.47 13.2398 9.48 13.2998C9.49 13.3698 9.5 13.4398 9.5 13.4998C9.5 13.7598 9.39 14.0198 9.21 14.2098ZM12.71 14.2098C12.52 14.3898 12.27 14.4998 12 14.4998C11.87 14.4998 11.74 14.4698 11.62 14.4198C11.49 14.3698 11.39 14.2998 11.29 14.2098C11.11 14.0198 11 13.7598 11 13.4998C11 13.4398 11.01 13.3698 11.02 13.2998C11.03 13.2398 11.05 13.1798 11.08 13.1198C11.1 13.0598 11.13 12.9998 11.17 12.9398C11.21 12.8898 11.25 12.8398 11.29 12.7898C11.66 12.4198 12.33 12.4198 12.71 12.7898C12.75 12.8398 12.79 12.8898 12.83 12.9398C12.87 12.9998 12.9 13.0598 12.92 13.1198C12.95 13.1798 12.97 13.2398 12.98 13.2998C12.99 13.3698 13 13.4398 13 13.4998C13 13.7598 12.89 14.0198 12.71 14.2098Z" />
<path d="M21.83 16.17C20.27 14.61 17.73 14.61 16.17 16.17C14.61 17.73 14.61 20.27 16.17 21.83C17.73 23.39 20.27 23.39 21.83 21.83C23.39 20.27 23.39 17.73 21.83 16.17ZM21.07 19.56C20.94 19.7 20.75 19.78 20.54 19.78H19.8V20.56C19.8 20.77 19.72 20.95 19.58 21.09C19.44 21.23 19.26 21.31 19.05 21.31C18.64 21.31 18.3 20.97 18.3 20.56V19.78H17.55C17.14 19.78 16.8 19.45 16.8 19.03C16.8 18.62 17.14 18.28 17.55 18.28H18.3V17.57C18.3 17.16 18.63 16.82 19.05 16.82C19.46 16.82 19.8 17.16 19.8 17.57V18.28H20.54C20.96 18.28 21.29 18.62 21.29 19.03C21.29 19.24 21.21 19.43 21.07 19.56Z" />
</svg>

<?xml version="1.0" encoding="UTF-8"?>
<svg width="24" height="24" viewBox="0 0 24 24" xmlns="http://www.w3.org/2000/svg">
 <path d="m16.75 3.56v-1.56c0-0.41-0.34-0.75-0.75-0.75s-0.75 0.34-0.75 0.75v1.5h-6.5v-1.5c0-0.41-0.34-0.75-0.75-0.75s-0.75 0.34-0.75 0.75v1.56c-2.7 0.25-4.01 1.86-4.21 4.25-0.02 0.29 0.22 0.53 0.5 0.53h16.92c0.29 0 0.53-0.25 0.5-0.53-0.2-2.39-1.51-4-4.21-4.25z"/>
 <path d="m20 9.8398h-16c-0.55 0-1 0.44996-1 0.99996v6.16c0 3 1.5 5 5 5h4.93c0.69 0 1.17-0.67 0.95-1.32-0.2-0.58-0.37-1.22-0.37-1.68 0-3.03 2.47-5.5 5.5-5.5 0.29 0 0.58 0.02 0.86 0.07 0.6 0.09 1.14-0.38 1.14-0.98v-1.74c-0.01-0.56-0.46-1.01-1.01-1.01zm-10.79 7.87c-0.1 0.09-0.21 0.16-0.33 0.21s-0.25 0.08-0.38 0.08-0.26-0.03-0.38-0.08-0.23-0.12-0.33-0.21c-0.18-0.19-0.29-0.45-0.29-0.71 0-0.06 0.01-0.13 0.02-0.19 0.01-0.07 0.03-0.13 0.06-0.19 0.02-0.06 0.05-0.12 0.09-0.18 0.03-0.05 0.08-0.1 0.12-0.15 0.1-0.09 0.21-0.16 0.33-0.21 0.24-0.1 0.52-0.1 0.76 0 0.12 0.05 0.23 0.12 0.33 0.21 0.04 0.05 0.09 0.1 0.12 0.15 0.04 0.06 0.07 0.12 0.09 0.18 0.03 0.06 0.05 0.12 0.06 0.19 0.01 0.06 0.02 0.13 0.02 0.19 0 0.26-0.11 0.52-0.29 0.71zm0-3.5c-0.1 0.09-0.21 0.16-0.33 0.21s-0.25 0.08-0.38 0.08-0.26-0.03-0.38-0.08c-0.13-0.05-0.23-0.12-0.33-0.21-0.18-0.19-0.29-0.45-0.29-0.71s0.11-0.52 0.29-0.71c0.1-0.09 0.21-0.16 0.33-0.21 0.24-0.1 0.52-0.1 0.76 0 0.12 0.05 0.23 0.12 0.33 0.21 0.04 0.05 0.09 0.1 0.12 0.15 0.04 0.06 0.07 0.12 0.09 0.18 0.03 0.06 0.05 0.12 0.06 0.18 0.01 0.07 0.02 0.14 0.02 0.2 0 0.26-0.11 0.52-0.29 0.71zm3.5 0c-0.19 0.18-0.44 0.29-0.71 0.29-0.13 0-0.26-0.03-0.38-0.08-0.13-0.05-0.23-0.12-0.33-0.21-0.18-0.19-0.29-0.45-0.29-0.71 0-0.06 0.01-0.13 0.02-0.2 0.01-0.06 0.03-0.12 0.06-0.18 0.02-0.06 0.05-0.12 0.09-0.18l0.12-0.15c0.37-0.37 1.04-0.37 1.42 0l0.12 0.15c0.04 0.06 0.07 0.12 0.09 0.18 0.03 0.06 0.05 0.12 0.06 0.18 0.01 0.07 0.02 0.14 0.02 0.2 0 0.26-0.11 0.52-0.29 0.71z"/>
 <path d="m21.83 16.17c-1.56-1.56-4.1-1.56-5.66 0s-1.56 4.1 0 5.66 4.1 1.56 5.66 0 1.56-4.1 0-5.66zm-0.76 3.39c-0.13 0.14-0.32 0.22-0.53 0.22h-0.74v0.78c0 0.21-0.08 0.39-0.22 0.53s-0.32 0.22-0.53 0.22c-0.41 0-0.75-0.34-0.75-0.75v-0.78h-0.75c-0.41 0-0.75-0.33-0.75-0.75 0-0.41 0.34-0.75 0.75-0.75h0.75v-0.71c0-0.41 0.33-0.75 0.75-0.75 0.41 0 0.75 0.34 0.75 0.75v0.71h0.74c0.42 0 0.75 0.34 0.75 0.75 0 0.21-0.08 0.4-0.22 0.53z"/>
</svg>
